X:39
T:Bonny Lass of Fyfie
R:march
S:Nottingham Music Database
M:2/4
L:1/8
K:G
"G"G>F "C"GA|"G"G2 "D"D2|"G"G>F "C"GA|"G"G2 -GD|G2 Bc|d2 cB|"Am"A2 D2|"D7"D2 dc|
"G"B>A Bc|"G7"d2 DD|"C"G>A GE|C2 EE|"G"D2 G2|"D7"AG FE|"G"D2 "C"G2|"G"G3:|
